design/assets/logos/insights-bug.svg

<?xml version="1.0" encoding="UTF-8"?>
<svg width="32px" height="32px" viewBox="0 0 32 32" version="1.1" xmlns="http://www.w3.org/2000/svg" xmlns:xlink="http://www.w3.org/1999/xlink">
    <!-- Generator: Sketch 52.6 (67491) - http://www.bohemiancoding.com/sketch -->
    <title>Artboard</title>
    <desc>Created with Sketch.</desc>
    <g id="Artboard" stroke="none" stroke-width="1" fill="none" fill-rule="evenodd">
        <path d="M18.1758976,15.9416364 L20.183534,13.934 L22.1911703,15.9416364 L20.183534,17.9492727 L18.1758976,15.9416364 Z M9.66571579,7.39218182 L11.6733522,5.38490909 L13.6809885,7.39218182 L11.6733522,9.40018182 L9.66571579,7.39218182 Z M25.3809885,19.2572727 C25.1868067,21.3681818 24.2838976,23.4256364 22.671534,25.038 C22.3337158,25.3758182 21.9762612,25.682 21.6028067,25.9576364 L21.6028067,20.5445455 L26.2060794,15.9416364 L20.183534,9.91909091 L14.1606249,15.9416364 L18.7638976,20.5445455 L18.7638976,27.3809091 C16.9166249,27.9405455 14.9304431,27.9194545 13.0926249,27.3205455 L13.0926249,11.9954545 L17.6958976,7.39218182 L11.6733522,1.37 L5.6508067,7.39218182 L10.2537158,11.9954545 L10.2537158,24.9194545 L10.2537158,24.9205455 L10.2537158,25.8129091 C9.94826124,25.5750909 9.65262488,25.3183636 9.37226124,25.038 C6.62426124,22.29 5.93589761,18.2507273 7.30644306,14.8554545 L5.17371579,12.7223636 C2.76789761,17.3361818 3.49917033,23.1725455 7.36826124,27.0412727 C9.67953397,29.3532727 12.7529885,30.6263636 16.0217158,30.6263636 C19.2908067,30.6263636 22.3642612,29.3532727 24.675534,27.0412727 C26.8406249,24.8765455 28.019534,22.0954545 28.2202612,19.2572727 L25.3809885,19.2572727 Z" id="bug" fill="#FFAE1A"></path>
    </g>
</svg>

<svg width="32" height="32" xmlns="http://www.w3.org/2000/svg"><path d="M18.176 15.942l2.008-2.008 2.007 2.008-2.007 2.007-2.008-2.007zm-8.51-8.55l2.007-2.007 2.008 2.007L11.673 9.4 9.666 7.392zM25.38 19.257a9.361 9.361 0 0 1-3.778 6.7v-5.412l4.603-4.603-6.022-6.023-6.023 6.023 4.603 4.603v6.836a9.472 9.472 0 0 1-5.671-.06V11.995l4.603-4.603-6.023-6.022-6.022 6.022 4.603 4.603v13.818a9.472 9.472 0 0 1-.882-.775c-2.748-2.748-3.436-6.787-2.066-10.183l-2.132-2.133c-2.406 4.614-1.675 10.45 2.194 14.32a12.156 12.156 0 0 0 8.654 3.584c3.269 0 6.342-1.273 8.654-3.585a12.182 12.182 0 0 0 3.544-7.784h-2.839z" fill="#FFAE1A" fill-rule="evenodd"/></svg>
